X:18383
T:Walls of Liscarroll
S:unknown, photocopy. no.9 on p.7
M:6/8
I:speed 250
K:D
|: e | edB BAF | AFE E2F | AFF dFF | ABc def | 
edB BAF | AFE E2F | AFFdFF | FED E2:|
e | eBe fdB | eBe fdB | AFF dFF | ABc def | 
eBe fdB | eBe fdB | AFF dFF | FED E2 ||
e | eBe fdB | eBe fdB | AFF dFF | ABc def | 
edB BAF | AFE E2F | AFF dFF | FED E2||


